www/images/github.svg

<?xml version="1.0" encoding="UTF-8" standalone="no"?>
<svg
   xmlns="http://www.w3.org/2000/svg"
   version="1.1"
   width="10"
   height="10"
   viewBox="0 0 10 10">
  <path
     d="m 3.7891667,7.6825 c 0,0.3516667 -0.3191667,0.4295833 -0.6054167,0.4295833 -0.28,0 -0.6966667,-0.045417 -0.6966667,-0.41 0,-0.3579166 0.3516667,-0.4166666 0.6379167,-0.4166666 0.2733333,0 0.6641667,0.045417 0.6641667,0.3970833 z M 3.5545833,4.6483333 c 0,0.3254167 -0.1304166,0.5533334 -0.4816666,0.5533334 -0.3579167,0 -0.50125,-0.2083334 -0.50125,-0.5470834 0,-0.33875 0.1304166,-0.5858333 0.50125,-0.5858333 0.3320833,0 0.4816666,0.2733333 0.4816666,0.5795833 z M 4.6354167,4.16 l 0,-0.81375 C 4.3554167,3.4504167 4.0558333,3.535 3.7566667,3.535 3.5416667,3.41125 3.2945833,3.34625 3.0404167,3.34625 2.2983333,3.34625 1.7125,3.8933333 1.7125,4.6483333 c 0,0.40375 0.2670833,0.9633334 0.6704167,1.1004167 l 0,0.019583 c -0.2083334,0.09125 -0.2475,0.345 -0.2475,0.5533334 0,0.215 0.077917,0.3908333 0.2670833,0.50125 l 0,0.019583 C 1.96,6.9858333 1.6666667,7.2658333 1.6666667,7.7475 c 0,0.8266667 0.7879166,1.06125 1.4779166,1.06125 0.8333334,0 1.4583334,-0.3058333 1.4583334,-1.2241667 0,-0.65125 -0.5925,-0.84625 -1.1329167,-0.9441666 C 3.2875,6.6079167 2.975,6.4775 2.975,6.2495833 2.975,6.0345833 3.0920833,5.94375 3.2941667,5.91125 3.9583333,5.7808333 4.38125,5.2666667 4.38125,4.5833333 4.38125,4.46625 4.355,4.3554167 4.31625,4.245 4.4204167,4.21875 4.53125,4.1929167 4.6354167,4.1604167 Z m 0.3841666,2.7279167 0.8920834,0 C 5.89875,6.7120833 5.89875,6.53 5.89875,6.3541667 l 0,-2.5195834 c 0,-0.1495833 0,-0.2995833 0.012917,-0.4491666 l -0.8920834,0 C 5.0391667,3.535 5.0391667,3.6979167 5.0391667,3.8475 l 0,2.5520833 c 0,0.1629167 0,0.3254167 -0.019583,0.4883334 z m 3.31375,-0.1041667 0,-0.7879167 C 8.2029167,6.0870833 8.0466667,6.1325 7.8908333,6.1325 c -0.2929166,0 -0.345,-0.2929167 -0.345,-0.53375 l 0,-1.465 0.3383334,0 c 0.1170833,0 0.2279166,0.012917 0.345,0.012917 l 0,-0.7616667 -0.68375,0 C 7.5454167,3.16375 7.5325,2.9425 7.565,2.7208333 l -0.9116667,0 C 6.6729167,2.8379167 6.6795833,2.955 6.6795833,3.07875 l 0,0.3058333 -0.3908333,0 0,0.7616667 C 6.366667,4.13958 6.445,4.126667 6.5295833,4.126667 c 0.045417,0 0.0975,0.00667 0.1495834,0.00667 l 0,0.012917 -0.012917,0 0,1.4129167 c 0,0.7029166 0.1041667,1.3804166 0.9633333,1.3804166 0.2408334,0 0.4883334,-0.039167 0.7029167,-0.15625 z m -2.3175,-4.59625 c 0,-0.3058333 -0.2279166,-0.5925 -0.5470833,-0.5925 -0.3191667,0 -0.5533333,0.28 -0.5533333,0.5925 0,0.3058333 0.2408333,0.5795833 0.5533333,0.5795833 0.3125,0 0.5470833,-0.28 0.5470833,-0.5795833 z M 10,1.875 10,8.125 C 10,9.16 9.16,10 8.125,10 l -6.25,0 C 0.84,10 0,9.16 0,8.125 L 0,1.875 C 0,0.84 0.84,0 1.875,0 l 6.25,0 C 9.16,0 10,0.84 10,1.875 Z"
     style="fill:#222222" />
</svg>

<?xml version="1.0" encoding="UTF-8"?>
<svg width="10" height="10" version="1.1" viewBox="0 0 10 10" xmlns="http://www.w3.org/2000/svg">
	<path d="m3.7892 7.6825c0 0.35167-0.31917 0.42958-0.60542 0.42958-0.28 0-0.69667-0.045417-0.69667-0.41 0-0.35792 0.35167-0.41667 0.63792-0.41667 0.27333 0 0.66417 0.045417 0.66417 0.39708zm-0.23458-3.0342c0 0.32542-0.13042 0.55333-0.48167 0.55333-0.35792 0-0.50125-0.20833-0.50125-0.54708s0.13042-0.58583 0.50125-0.58583c0.33208 0 0.48167 0.27333 0.48167 0.57958zm1.0808-0.48833v-0.81375c-0.28 0.10417-0.57958 0.18875-0.87875 0.18875-0.215-0.12375-0.46208-0.18875-0.71625-0.18875-0.74208 0-1.3279 0.54708-1.3279 1.3021 0 0.40375 0.26708 0.96333 0.67042 1.1004v0.019583c-0.20833 0.09125-0.2475 0.345-0.2475 0.55333 0 0.215 0.077917 0.39083 0.26708 0.50125v0.019583c-0.4425 0.14333-0.73583 0.42333-0.73583 0.905 0 0.82667 0.78792 1.0612 1.4779 1.0612 0.83333 0 1.4583-0.30583 1.4583-1.2242 0-0.65125-0.5925-0.84625-1.1329-0.94417-0.1825-0.0325-0.495-0.16292-0.495-0.39083 0-0.215 0.11708-0.30583 0.31917-0.33833 0.66417-0.13042 1.0871-0.64458 1.0871-1.3279 0-0.11708-0.02625-0.22792-0.065-0.33833 0.10417-0.02625 0.215-0.052083 0.31917-0.084583zm0.38417 2.7279h0.89208c-0.012917-0.17583-0.012917-0.35792-0.012917-0.53375v-2.5196c0-0.14958 0-0.29958 0.012917-0.44917h-0.89208c0.019583 0.14958 0.019583 0.3125 0.019583 0.46208v2.5521c0 0.16292 0 0.32542-0.019583 0.48833zm3.3138-0.10417v-0.78792c-0.13042 0.09125-0.28667 0.13667-0.4425 0.13667-0.29292 0-0.345-0.29292-0.345-0.53375v-1.465h0.33833c0.11708 0 0.22792 0.012917 0.345 0.012917v-0.76167h-0.68375c0-0.22125-0.012917-0.4425 0.019583-0.66417h-0.91167c0.019583 0.11708 0.02625 0.23417 0.02625 0.35792v0.30583h-0.39083v0.76167c0.077917-0.00667 0.15625-0.019583 0.24083-0.019583 0.045417 0 0.0975 0.00667 0.14958 0.00667v0.012917h-0.012917v1.4129c0 0.70292 0.10417 1.3804 0.96333 1.3804 0.24083 0 0.48833-0.039167 0.70292-0.15625zm-2.3175-4.5962c0-0.30583-0.22792-0.5925-0.54708-0.5925s-0.55333 0.28-0.55333 0.5925c0 0.30583 0.24083 0.57958 0.55333 0.57958s0.54708-0.28 0.54708-0.57958zm3.9842-0.3125v6.25c0 1.035-0.84 1.875-1.875 1.875h-6.25c-1.035 0-1.875-0.84-1.875-1.875v-6.25c0-1.035 0.84-1.875 1.875-1.875h6.25c1.035 0 1.875 0.84 1.875 1.875z" fill="#222"/>
</svg>
